public/icons/networks/avalanche.svg

<svg width="24" height="24" viewBox="0 0 24 24" fill="none" xmlns="http://www.w3.org/2000/svg">
  <g clip-path="url(#clip0_7123_21010)">
    <path d="M19.3886 4.11703H4.58008V17.5851H19.3886V4.11703Z" fill="white"/>
    <path fill-rule="evenodd" clip-rule="evenodd" d="M23.9759 12C23.9759 18.6187 18.6105 23.984 11.9919 23.984C5.37325 23.984 0.0078125 18.6187 0.0078125 12C0.0078125 5.3814 5.37325 0.0159607 11.9919 0.0159607C18.6105 0.0159607 23.9759 5.3814 23.9759 12ZM8.59592 16.769H6.27015C5.78144 16.769 5.54004 16.769 5.39284 16.6749C5.23386 16.5718 5.13671 16.4011 5.12493 16.2126C5.11609 16.039 5.23681 15.827 5.47822 15.403L11.2208 5.28088C11.4652 4.85105 11.5888 4.63614 11.7448 4.55665C11.9127 4.47128 12.1129 4.47128 12.2807 4.55665C12.4367 4.63614 12.5604 4.85105 12.8047 5.28088L13.9853 7.34169L13.9913 7.35221C14.2552 7.81333 14.389 8.04717 14.4475 8.29259C14.5122 8.5605 14.5122 8.84313 14.4475 9.11104C14.3886 9.35833 14.2561 9.59386 13.9882 10.062L10.9717 15.3942L10.9639 15.4078C10.6983 15.8728 10.5636 16.1084 10.3771 16.2862C10.1739 16.4805 9.92956 16.6218 9.66165 16.7014C9.4173 16.769 9.14351 16.769 8.59592 16.769ZM14.4692 16.769H17.8018C18.2934 16.769 18.5408 16.769 18.6881 16.672C18.847 16.5689 18.9471 16.3952 18.956 16.2069C18.9645 16.0388 18.8464 15.8351 18.615 15.4358C18.607 15.4222 18.599 15.4083 18.5909 15.3942L16.9216 12.5386L16.9026 12.5064C16.668 12.1097 16.5496 11.9094 16.3975 11.832C16.2298 11.7466 16.0324 11.7466 15.8647 11.832C15.7116 11.9115 15.588 12.1205 15.3436 12.5415L13.6802 15.3972L13.6746 15.407C13.4311 15.8273 13.3094 16.0374 13.3181 16.2097C13.3299 16.3982 13.4271 16.5718 13.586 16.6749C13.7303 16.769 13.9776 16.769 14.4692 16.769Z" fill="#E84142"/>
  </g>
  <defs>
    <clipPath id="clip0_7123_21010">
      <rect width="23.984" height="24" fill="white"/>
    </clipPath>
  </defs>
</svg>

<svg width="24" height="24" fill="none" xmlns="http://www.w3.org/2000/svg"><g clip-path="url(#a)"><path d="M19.389 4.117H4.58v13.468H19.39V4.117Z" fill="#fff"/><path fill-rule="evenodd" clip-rule="evenodd" d="M23.976 12c0 6.619-5.366 11.984-11.984 11.984C5.373 23.984.008 18.619.008 12S5.373.016 11.992.016C18.61.016 23.976 5.381 23.976 12Zm-15.38 4.769H6.27c-.489 0-.73 0-.877-.094a.591.591 0 0 1-.268-.462c-.009-.174.112-.386.353-.81l5.743-10.122c.244-.43.368-.645.524-.724a.593.593 0 0 1 .536 0c.156.08.28.294.524.724l1.18 2.06.006.011c.264.461.398.695.457.94.064.268.064.551 0 .819-.06.247-.192.483-.46.951l-3.016 5.332-.008.014c-.266.465-.4.7-.587.878a1.757 1.757 0 0 1-.715.415c-.245.068-.518.068-1.066.068Zm5.873 0h3.333c.491 0 .739 0 .886-.097a.589.589 0 0 0 .268-.465c.009-.168-.11-.372-.341-.771a4.694 4.694 0 0 1-.024-.042l-1.67-2.855-.018-.033c-.235-.396-.353-.597-.505-.674a.586.586 0 0 0-.533 0c-.153.08-.277.288-.521.71l-1.664 2.855-.005.01c-.244.42-.366.63-.357.803a.597.597 0 0 0 .268.465c.144.094.392.094.883.094Z" fill="#E84142"/></g><defs><clipPath id="a"><path fill="#fff" d="M0 0h23.984v24H0z"/></clipPath></defs></svg>
